X:1
T:Title
%%score { ( 1 3 5 ) | ( 2 4 ) }
L:1/8
Q:1/4=94
M:4/4
K:Eb
V:1 treble nm="Grand Piano"
V:3 treble 
V:5 treble 
V:2 bass 
V:4 bass 
V:1
 (3GGG G>A G2 E>G | z4 [GB]4 | (3[FA][FA][FA] [FA]>[GB] [FA]2 [DF]>[FA] | [Fd]>[Ac] [GB]>[FA] G4 | %4
w: Chas.~H.~Gabriel * * * * * * *||||
 (3GGG G>A G2 E>G | B>B B>c B4 | (3[FB][FB][FB] [Fc]>[Fc] [Fd]2 F>F | G>G =A>A [B,B]4 | %8
w: ||||
 (3[Ge][Ge][Ge] [Ge]>[Af] [Ge]2 [B,EG]>[B,FA] | [EGB]>[EGB] [DAB]>[DAB] [EGB]4 | z2 [FA]2 A4 | %11
w: |||
 c4 z4 | (3[Ge][Ge][Ge] [Ge]>[Af] [Ge]2 [EG]>[FA] | [GB]>[GB] [AB]>B c4 | d4 d4 | e4 z4 |] %16
w: |||||
V:2
 (3[E,B,E][E,B,E][E,B,E] [E,B,E]>[E,CE] [E,B,E]2 [E,G,]>[E,B,E] | z4 E2 z2 | %2
 (3[B,,B,][B,,B,][B,,B,] [B,,B,]>[B,,B,] [B,,B,]2 [B,,B,]>[B,,B,] | %3
 [B,,B,]>[B,,B,] [B,,B,]>[B,,B,] [E,B,E]4 | %4
 (3[E,B,E][E,B,E][E,B,E] [E,B,E]>[E,CE] [E,B,E]2 [E,G,]>[E,B,E] | %5
 [E,G,E]>[E,G,E] [E,G,E]>[E,A,E] [E,G,E]4 | %6
 (3[D,B,][D,B,][D,B,] [F,=A,]>[F,A,] [B,,B,]2 [D,B,]>[D,B,] | [E,B,E]>[E,B,E] [F,E]>[F,CE] z2 A2 | %8
 (3[E,B,][E,B,][E,B,] [E,B,]>[E,B,] [E,B,]2 E,>E, | E,>E, B,,>B,, E,4 | %10
 (3B,,B,,B,, B,,>B,, B,,>B,, B,,>B,, | [E,E]>[E,E] [E,E]>[E,B,E] [E,B,E]4 | %12
 (3[E,B,][E,B,][E,B,] [E,B,]>[E,B,] [E,B,]2 [E,B,]>[E,B,] | %13
 [E,E]>[E,E] [F,D]>[K:treble][G,E] [A,EA]4 | %14
 (3[B,A]B,B, B,>[B,A] [B,A]>[K:bass][A,B,] [G,B,]>[F,B,] | [E,B,]>[E,B,] [E,C]>[E,C] [E,B,]4 |] %16
V:3
 x8 | [GB]>[GB] [GB]>[Ac] z2 B,2 | x8 | x8 | x8 | x8 | x8 | z4 D2 z2 | x8 | x8 | %10
 (3[FAd-][FAd-][FAd-] d>[B,DF] [DF]>[DF] [DF]>[DF] | G>G G>G G4 | x8 | x8 | %14
 (3z AA z z/ d/ z z/ A/ A>A | G>G A>[Ae] [Ge]4 |] %16
V:4
 x8 | [E,E]>[E,E] [E,E]>[E,E] E,4 | x8 | x8 | x8 | x8 | x8 | z4 B,,4 | x8 | x8 | x8 | x8 | x8 | %13
 x7/2[K:treble] x9/2 | x11/2[K:bass] x5/2 | x8 |] %16
V:5
 x8 | x8 | x8 | x8 | x8 | x8 | x8 | x8 | x8 | x8 | x8 | x8 | x8 | x8 | z2 A2 z4 | x8 |] %16

